svg/传入.svg

<svg width="24" height="24" viewBox="0 0 24 24" fill="none" xmlns="http://www.w3.org/2000/svg"><path d="M9.5 3H4.5C3.67158 3 3 3.67158 3 4.5V19.5C3 20.3285 3.67158 21 4.5 21H19.5C20.3285 21 21 20.3285 21 19.5V14.5" stroke="#0D131A" stroke-width="1.5" stroke-linecap="round" stroke-linejoin="round"/><path d="M9 8.5L11 14.5L17 12.5" stroke="#0D131A" stroke-width="1.5" stroke-linecap="round" stroke-linejoin="round"/><path d="M11 14.5C13.5 7 15 5.5 20 3.5" stroke="#0D131A" stroke-width="1.5" stroke-linecap="round" stroke-linejoin="round"/></svg>

<svg fill="none" viewBox="0 0 24 24"><path stroke="#0D131A" stroke-linecap="round" stroke-linejoin="round" stroke-width="1.5" d="M9.5 3h-5A1.5 1.5 0 0 0 3 4.5v15A1.5 1.5 0 0 0 4.5 21h15a1.5 1.5 0 0 0 1.5-1.5v-5"/><path stroke="#0D131A" stroke-linecap="round" stroke-linejoin="round" stroke-width="1.5" d="m9 8.5 2 6 6-2"/><path stroke="#0D131A" stroke-linecap="round" stroke-linejoin="round" stroke-width="1.5" d="M11 14.5c2.5-7.5 4-9 9-11"/></svg>
